X: 0653
T: CLARE DE KITCHEN
B: Oliver Ditson "The Boston Collection of Instrumental Music" 1910 p.65 #3
F: http://conquest.imslp.info/files/imglnks/usimg/8/8f/IMSLP175643-PMLP309456-bostoncollection00bost_bw.pdf
M: 2/4
L: 1/8
K: D
D/E/ |\
FFF D/F/ | AAA F/A/ | ddd c/d/ | eee A |\
f>d e>c | dA FA | f>d e>d | dA FA |\
G>F EG | EG EG |
A>G FA | FA FA | B>d c/d/e/c/ | d3 |] D/E/ |\
FFF D/F/ | AAA F/A/ | df/d/ c/d/e/c/ | dfd |]

%%sep 1 1 500
%%sep 1 1 500
